X:461
T: NOCH NICHT ENTBLUEHT ZUR ROSE
N: F0868
O: Europa, Mitteleuropa, Deutschland
R: Liebes - Lied
M: 4/4
L: 1/16
K: F
A3B | c4c4c2f2e2d2 | c6B2G2z2
G2F2 | E2G2B2A2G2B2d2c2 | B4A4z4
c4 | E4c4A4c4 | G8z4
G3A | B4B4B4B4 | B6A2G4z2
G2 | A2B2c2d2_e6E2 | D4D4z4
d2B2G2 | c8c=Bdc_BABG | F4z8

